X:17448
T:Thunderhead (6/8)
R:Jig
O:Canada
N:Contact address - glarsen@bluemarble.net
M:6/8
C:Grey Larsen
B:Published Sleepy Creek Music, BMI
K:D
~B3 fBB | eBB dBA | ~B3 fgf | edB AGc | \
~B3 fBB | eBB def | 
gfe fdB | ADF ABc :||\
K: G
dGG AGE | DEG ~F3 | 
EFF EFF | GFE ~F3 | \
dGG AGE | DEG FGA |1 BdB ceg | f/2g/2af g2e :|2\
Bde fge | edB AGc ||\
W:Copyright Grey Larsen
